!!!COM: Music21
!!!OTL: march_Nancy
!!!OMV: march_Nancy
**kern
*clefG2
*k[f#c#]
*D:
*M4/4
=1
12aL
12b
12cc#J
=||
4dd
4d
4f#
4a
=
4dd
8ff#L
8eeJ
4dd
4a
=
4dd
8eeL
8ff#J
8ggL
8ff#J
16eeKL
8.ddJ
=
4cc#
8eeL
8cc#J
4a
8bL
8cc#J
=
4dd
4d
4f#
4a
=
4dd
8ff#L
8eeJ
4dd
4a
!!linebreak:original
=
4b
4gg
8ff#L
8eeJ
16ddKL
8.cc#J
=
2.dd
12aL
12b
12cc#J
=||
4dd
4d
4f#
4a
=
4dd
8ff#L
8eeJ
4dd
4a
=
4dd
8eeL
8ff#J
8ggL
8ff#J
16eeKL
8.ddJ
=
4cc#
8eeL
8cc#J
4a
8bL
8cc#J
=
4dd
4d
4f#
4a
!!linebreak:original
=
4dd
8ff#L
8eeJ
4dd
4a
=
4b
4gg
8ff#L
8eeJ
16ddKL
8.cc#J
=
2.dd
8ff#L
8ggJ
=||
4.aa
8bb
4aa
4ff#
=
4.gg
8aa
4gg
4ee
=
4ff#
4dd
8ggL
8ff#J
8eeL
8ddJ
=
4cc#
4ee
4a
8bL
8cc#J
!!linebreak:original
=
4dd
4d
4f#
4a
=
4dd
8ff#L
8eeJ
4dd
4a
=
4b
4gg
8ff#L
8eeJ
8ddL
8cc#J
=
2.dd
8ff#L
8ggJ
=||
4.aa
8bb
4aa
4ff#
=
4.gg
8aa
4gg
4ee
=
4ff#
4dd
8ggL
8ff#J
8eeL
8ddJ
!!linebreak:original
=
4cc#
4ee
4a
8bL
8cc#J
=
4dd
4d
4f#
4a
=
4dd
8ff#L
8eeJ
4dd
4a
=
4b
4gg
8ff#L
8eeJ
8ddL
8cc#J
=
2.dd
12aL
12b
12cc#J
=||
8ddL
8cc#J
8bL
8aJ
8gL
8f#J
8eL
8dJ
=
4f#
4a
4dd
4a
!!linebreak:original
=
8ddL
8cc#J
8ddL
8ff#J
8ggL
8ff#J
8eeL
8ddJ
=
8cc#L
8ddJ
8eeL
8cc#J
4a
8bL
8cc#J
=
8ddL
8cc#J
8bL
8aJ
8gL
8f#J
8eL
8dJ
=
4f#
4a
4dd
4a
=
4b
4gg
8ff#L
8eeJ
8ddL
8cc#J
=
2.dd
12aL
12b
12cc#J
!!linebreak:original
=||
8ddL
8cc#J
8bL
8aJ
8gL
8f#J
8eL
8dJ
=
4f#
4a
4dd
4a
=
8ddL
8cc#J
8ddL
8ff#J
8ggL
8ff#J
8eeL
8ddJ
=
8cc#L
8ddJ
8eeL
8cc#J
4a
8bL
8cc#J
=
8ddL
8cc#J
8bL
8aJ
8gL
8f#J
8eL
8dJ
=
4f#
4a
4dd
4a
!!linebreak:original
=
4b
4gg
8ff#L
8eeJ
8ddL
8cc#J
=
2.dd
8ff#L
8ggJ
=||
8aaL
8ff#J
8aaL
8ff#J
4aa
8ggL
8ff#J
=
8ggL
8eeJ
8ggL
8eeJ
4gg
8ff#L
8eeJ
=
8ff#L
8ddJ
8ff#L
8ddJ
8ggL
8ff#J
8eeL
8ddJ
=
8cc#L
8ddJ
8eeL
8cc#J
4a
8bL
8cc#J
!!linebreak:original
=
8ddL
8cc#J
8bL
8aJ
8gL
8f#J
8eL
8dJ
=
4f#
4a
4dd
4a
=
4b
4gg
8ff#L
8eeJ
8ddL
8cc#J
=
2.dd
8ff#L
8ggJ
=||
8aaL
8ff#J
8aaL
8ff#J
4aa
8ggL
8ff#J
=
8ggL
8eeJ
8ggL
8eeJ
4gg
8ff#L
8eeJ
!!linebreak:original
=
8ff#L
8ddJ
8ff#L
8ddJ
8ggL
8ff#J
8eeL
8ddJ
=
8cc#L
8ddJ
8eeL
8cc#J
4a
8bL
8cc#J
=
8ddL
8cc#J
8bL
8aJ
8gL
8f#J
8eL
8dJ
=
4f#
4a
4dd
4a
=
4b
4gg
8ff#L
8eeJ
8ddL
8cc#J
=
2.dd
4ryy
=||
*-
